; LightBurn 0.9.21
; GRBL-M3 (1.1e or earlier) device profile, absolute coords
; Bounds: X168.45 Y23.41 to X273.27 Y80.1
G00 G17 G40 G21 G54
G90
; Cut @ 40 mm/sec, 100% power
M8
M5
G0X172.53Y38.89
; Layer 
M3
G1X173.93S255F2400
G1Y43.38
G1X178.15Y49.48
G1X176.53
G1X175.33Y47.68
G1X174.15Y45.86
G1X173.72Y45.19
G1X173.32Y44.5
G1X172.79Y45.4
G1X172.24Y46.29
G1X170.15Y49.48
G1X168.45
G1X172.53Y43.38
G1Y38.89
M5
G0X179.2Y40.65
; Layer 
M3
G1X179.04Y40.9
G1X178.92Y41.18
G1X178.8Y41.55
G1X178.72Y41.94
G1X178.67Y42.33
G1Y42.73
G1Y43.13
G1X178.72Y43.52
G1X178.8Y43.91
G1X178.92Y44.28
G1X179.1Y44.66
G1X179.36Y44.99
G1X179.66Y45.26
G1X180Y45.46
G1X180.38Y45.6
G1X180.78Y45.67
G1X181.19Y45.65
G1X181.6Y45.56
G1X181.86Y45.45
G1X182.09Y45.32
G1X182.31Y45.15
G1X182.5Y44.97
G1X182.67Y44.76
G1X182.82Y44.53
G1X182.93Y44.28
G1X183.02Y44.02
G1X183.1Y43.67
G1X183.15Y43.32
G1X183.18Y42.96
G1Y42.6
G1X183.16Y42.24
G1X183.11Y41.89
G1X183.03Y41.53
G1X182.93Y41.19
G1X182.77Y40.86
G1X182.57Y40.56
G1X182.33Y40.31
G1X182.05Y40.1
G1X181.74Y39.94
G1X181.4Y39.84
G1X181.05Y39.79
G1X180.69Y39.8
G1X180.39Y39.85
G1X180.11Y39.95
G1X179.85Y40.07
G1X179.61Y40.24
G1X179.39Y40.43
G1X179.2Y40.65
M5
G0X177.97Y40.2
; Layer 
M3
G1X178.24Y39.85
G1X178.55Y39.54
G1X178.91Y39.27
G1X179.3Y39.05
G1X179.72Y38.89
G1X180.16Y38.79
G1X180.47Y38.74
G1X180.79Y38.72
G1X181.1
G1X181.42Y38.75
G1X181.89Y38.84
G1X182.34Y38.99
G1X182.77Y39.19
G1X183.18Y39.45
G1X183.53Y39.75
G1X183.89Y40.21
G1X184.16Y40.71
G1X184.35Y41.25
G1X184.45Y41.82
G1X184.51Y42.39
G1Y42.96
G1X184.47Y43.53
G1X184.38Y44.1
G1X184.28Y44.45
G1X184.14Y44.79
G1X183.97Y45.1
G1X183.77Y45.4
G1X183.54Y45.68
G1X183.28Y45.92
G1X182.99Y46.14
G1X182.68Y46.33
G1X182.26Y46.52
G1X181.83Y46.64
G1X181.38Y46.72
G1X180.93Y46.74
G1X180.55
G1X180.18Y46.68
G1X179.81Y46.59
G1X179.46Y46.47
G1X179.12Y46.3
G1X178.81Y46.11
G1X178.51Y45.88
G1X178.24Y45.61
G1X177.99Y45.29
G1X177.78Y44.94
G1X177.62Y44.56
G1X177.5Y44.17
G1X177.41Y43.78
G1X177.36Y43.38
G1X177.33Y42.99
G1Y42.59
G1X177.35Y42.19
G1X177.4Y41.79
G1X177.48Y41.4
G1X177.58Y41.01
G1X177.75Y40.59
G1X177.97Y40.2
M5
G0X186.1Y40.87
; Layer 
M3
G1X186.15Y40.6
G1X186.21Y40.33
G1X186.29Y40.1
G1X186.39Y39.89
G1X186.51Y39.69
G1X186.66Y39.51
G1X186.82Y39.34
G1X187.01Y39.2
G1X187.21Y39.08
G1X187.42Y38.98
G1X187.82Y38.84
G1X188.23Y38.75
G1X188.64Y38.72
G1X189.06Y38.74
G1X189.33Y38.78
G1X189.58Y38.85
G1X189.83Y38.94
G1X190.07Y39.05
G1X190.3Y39.19
G1X190.51Y39.34
G1X190.71Y39.52
G1X190.89Y39.72
G1X191.13Y40.02
G1Y38.89
G1X192.29
G1Y46.57
G1X190.99
G1Y42.46
G1Y42.15
G1X190.97Y41.85
G1X190.93Y41.54
G1X190.87Y41.24
G1X190.75Y40.91
G1X190.57Y40.6
G1X190.34Y40.35
G1X190.05Y40.14
G1X189.66Y39.96
G1X189.25Y39.86
G1X188.83Y39.84
G1X188.41Y39.92
G1X188.21Y39.99
G1X188.02Y40.1
G1X187.86Y40.23
G1X187.71Y40.38
G1X187.59Y40.55
G1X187.5Y40.74
G1X187.44Y40.94
G1X187.41Y41.16
G1X187.38Y41.5
G1Y41.85
G1Y46.57
G1X186.07
G1Y41.42
G1Y41.15
G1X186.1Y40.87
M5
G0X199.48Y40.79
; Layer 
M3
G1Y41.11
G1X199.57Y41.42
G1X199.75Y41.7
G1X199.88Y41.82
G1X200.03Y41.93
G1X200.19Y42.01
G1X200.36Y42.07
G1X201.15Y42.24
G1X201.96Y42.36
G1X202.33Y42.43
G1X202.7Y42.51
G1X203.06Y42.62
G1X203.41Y42.75
G1Y42.13
G1X203.36Y41.52
G1X203.28Y41.15
G1X203.12Y40.81
G1X202.9Y40.51
G1X202.62Y40.25
G1X202.26Y40.02
G1X201.86Y39.86
G1X201.44Y39.77
G1X201.01Y39.74
G1X200.66Y39.76
G1X200.36Y39.82
G1X200.08Y39.93
G1X199.92Y40.04
G1X199.78Y40.16
G1X199.66Y40.31
G1X199.57Y40.48
G1X199.48Y40.79
M5
G0X198.08Y40.71
; Layer 
M3
G1X198.12Y40.46
G1X198.2Y40.18
G1X198.31Y39.92
G1X198.46Y39.68
G1X198.63Y39.46
G1X198.84Y39.27
G1X199.06Y39.11
G1X199.31Y38.97
G1X199.58Y38.88
G1X199.95Y38.79
G1X200.33Y38.74
G1X200.7Y38.72
G1X201.08Y38.74
G1X201.64Y38.82
G1X202.18Y38.99
G1X202.69Y39.24
G1X203.17Y39.56
G1X203.52Y39.84
G1X203.56Y39.6
G1X203.61Y39.36
G1X203.69Y39.12
G1X203.78Y38.89
G1X205.14
G1X204.98Y39.24
G1X204.86Y39.61
G1X204.79Y39.98
G1X204.77Y40.37
G1X204.74Y41.02
G1Y41.68
G1Y42.96
G1X204.73Y44.24
G1Y44.51
G1X204.71Y44.77
G1X204.66Y45.04
G1X204.6Y45.29
G1X204.46Y45.64
G1X204.24Y45.95
G1X203.97Y46.2
G1X203.65Y46.39
G1X203.31Y46.52
G1X202.95Y46.62
G1X202.6Y46.69
G1X202.23Y46.72
G1X201.77Y46.74
G1X201.32Y46.72
G1X200.86Y46.67
G1X200.42Y46.59
G1X200.14Y46.51
G1X199.87Y46.41
G1X199.61Y46.28
G1X199.36Y46.14
G1X199.1Y45.93
G1X198.87Y45.69
G1X198.68Y45.42
G1X198.53Y45.12
G1X198.4Y44.75
G1X198.3Y44.38
G1X199.57Y44.2
G1X199.69Y44.56
G1X199.84Y44.9
G1X200.01Y45.14
G1X200.22Y45.34
G1X200.49Y45.49
G1X200.78Y45.58
G1X201.19Y45.65
G1X201.61Y45.66
G1X202.03Y45.63
G1X202.44Y45.55
G1X202.78Y45.42
G1X203.06Y45.22
G1X203.22Y45.03
G1X203.33Y44.78
G1X203.39Y44.53
G1X203.42Y44.28
G1Y44.02
G1Y43.76
G1X202.94Y43.63
G1X202.46Y43.52
G1X201.97Y43.43
G1X201.48Y43.36
G1X200.71Y43.27
G1X199.94Y43.12
G1X199.58Y43
G1X199.23Y42.84
G1X198.92Y42.62
G1X198.63Y42.37
G1X198.47Y42.16
G1X198.34Y41.94
G1X198.23Y41.71
G1X198.15Y41.47
G1X198.1Y41.22
G1X198.08Y40.97
G1Y40.71
M5
G0X206.79Y38.89
; Layer 
M3
G1X208.09
G1Y42.91
G1Y43.35
G1X208.15Y43.79
G1X208.25Y44.22
G1X208.39Y44.64
G1X208.5Y44.83
G1X208.63Y45
G1X208.79Y45.14
G1X208.97Y45.25
G1X209.16Y45.33
G1X209.36Y45.38
G1X209.58Y45.4
G1X209.79Y45.38
G1X210.16Y45.28
G1X210.51Y45.12
G1X210.95Y46.32
G1X210.65Y46.49
G1X210.32Y46.62
G1X209.97Y46.71
G1X209.62Y46.74
G1X209.33Y46.71
G1X209.06Y46.63
G1X208.81Y46.5
G1X208.59Y46.31
G1X208.25Y45.88
G1X207.96Y45.4
G1Y46.57
G1X206.79
G1Y38.89
M5
G0X207.48Y34.17
; Layer 
M3
G1Y32.68
G1X208.78
G1Y34.17
G1X207.48
M5
G0X205.49Y34.17
; Layer 
M3
G1X204.19
G1Y23.59
G1X205.49
G1Y34.17
M5
G0X207.48Y31.26
; Layer 
M3
G1Y23.59
G1X208.78
G1Y31.26
G1X207.48
M5
G0X209.94Y31.26
; Layer 
M3
G1X212.86Y23.59
G1X214.07
G1X216.97Y31.26
G1X215.63
G1X213.93Y26.58
G1X213.68Y25.85
G1X213.44Y25.12
G1X213.22Y25.9
G1X212.95Y26.66
G1X211.31Y31.26
G1X209.94
M5
G0X219.15Y29.06
; Layer 
M3
G1X219.35Y29.44
G1X219.63Y29.76
G1X219.95Y30.02
G1X220.31Y30.21
G1X220.7Y30.32
G1X221.04Y30.36
G1X221.38Y30.35
G1X221.66Y30.3
G1X221.94Y30.21
G1X222.19Y30.09
G1X222.42Y29.93
G1X222.63Y29.74
G1X222.81Y29.52
G1X222.96Y29.28
G1X223.07Y29.01
G1X223.18Y28.59
G1X223.24Y28.16
G1X218.95
G1X219.02Y28.64
G1X219.15Y29.06
M5
G0X217.93Y29.44
; Layer 
M3
G1X217.78Y29.05
G1X217.67Y28.65
G1X217.59Y28.24
G1X217.55Y27.83
G1X217.53Y27.39
G1X217.55Y26.95
G1X217.6Y26.51
G1X217.67Y26.07
G1X217.8Y25.63
G1X217.99Y25.2
G1X218.23Y24.81
G1X218.52Y24.45
G1X218.76Y24.23
G1X219.01Y24.04
G1X219.28Y23.87
G1X219.56Y23.73
G1X219.85Y23.61
G1X220.15Y23.52
G1X220.46Y23.46
G1X220.78Y23.43
G1X221.15Y23.42
G1X221.52
G1X222.02Y23.48
G1X222.5Y23.6
G1X222.96Y23.8
G1X223.39Y24.06
G1X223.79Y24.44
G1X224.13Y24.88
G1X224.39Y25.37
G1X224.57Y25.89
G1X223.22Y26.06
G1X223.07Y25.69
G1X222.87Y25.34
G1X222.62Y25.03
G1X222.3Y24.78
G1X221.94Y24.6
G1X221.54Y24.51
G1X221.12Y24.48
G1X220.71Y24.53
G1X220.31Y24.66
G1X219.94Y24.86
G1X219.62Y25.13
G1X219.35Y25.46
G1X219.15Y25.82
G1X219.01Y26.22
G1X218.93Y26.65
G1X218.88Y27.09
G1X224.6
G1Y27.6
G1X224.57Y28.12
G1X224.49Y28.62
G1X224.36Y29.12
G1X224.24Y29.46
G1X224.08Y29.78
G1X223.89Y30.07
G1X223.66Y30.35
G1X223.41Y30.6
G1X223.14Y30.82
G1X222.84Y31.01
G1X222.52Y31.17
G1X222.08Y31.31
G1X221.64Y31.4
G1X221.18Y31.43
G1X220.73Y31.41
G1X220.28Y31.35
G1X219.84Y31.23
G1X219.43Y31.05
G1X219.05Y30.81
G1X218.71Y30.53
G1X218.4Y30.21
G1X218.14Y29.84
G1X217.93Y29.44
M5
G0X226.22Y34.17
; Layer 
M3
G1Y23.59
G1X227.52
G1Y34.17
G1X226.22
M5
G0X229.51Y34.17
; Layer 
M3
G1Y32.68
G1X230.81
G1Y34.17
G1X229.51
M5
G0X232.76Y34.17
; Layer 
M3
G1Y23.59
G1X234.06
G1Y27.78
G1X234.09Y28.35
G1X234.18Y28.92
G1X234.24Y29.12
G1X234.33Y29.31
G1X234.44Y29.49
G1X234.57Y29.66
G1X234.72Y29.81
G1X234.88Y29.94
G1X235.07Y30.05
G1X235.26Y30.14
G1X235.63Y30.26
G1X236.01Y30.31
G1X236.4Y30.29
G1X236.77Y30.2
G1X237.05Y30.06
G1X237.28Y29.87
G1X237.47Y29.61
G1X237.6Y29.29
G1X237.69Y28.87
G1X237.71Y28.45
G1Y23.59
G1X239.01
G1Y28.45
G1Y28.8
G1X238.98Y29.15
G1X238.93Y29.5
G1X238.85Y29.84
G1X238.71Y30.23
G1X238.48Y30.58
G1X238.19Y30.87
G1X237.84Y31.09
G1X237.49Y31.25
G1X237.12Y31.36
G1X236.74Y31.42
G1X236.36
G1X236.03
G1X235.7Y31.37
G1X235.39Y31.28
G1X235.09Y31.17
G1X234.8Y31.02
G1X234.53Y30.83
G1X234.28Y30.62
G1X234.06Y30.38
G1Y34.17
G1X232.76
M5
G0X230.81Y31.26
; Layer 
M3
G1X229.51
G1Y23.59
G1X230.81
G1Y31.26
M5
G0X233.27Y38.8
; Layer 
M3
G1X233.55
G1X234.01Y38.82
G1X234.53Y38.91
G1X234.34Y40.06
G1X233.93Y40.01
G1X233.52Y40.03
G1X233.33Y40.1
G1X233.21Y40.2
G1X233.12Y40.32
G1X233.07Y40.46
G1X233.05Y40.61
G1X233.04Y40.82
G1Y45.55
G1X234.34
G1Y46.57
G1X233.04
G1Y49.25
G1X231.74Y48.47
G1Y46.57
G1X230.79
G1Y45.55
G1X231.74
G1Y40.86
G1X231.77Y40.28
G1X231.86Y39.71
G1X231.96Y39.49
G1X232.09Y39.31
G1X232.26Y39.15
G1X232.45Y39.02
G1X232.71Y38.91
G1X232.99Y38.84
G1X233.27Y38.8
M5
G0X229.55Y39.89
; Layer 
M3
G1X229.72Y40.17
G1X229.85Y40.48
G1X229.93Y40.8
G1X229.96Y41.13
G1X229.94Y41.47
G1X229.84Y41.88
G1X229.66Y42.25
G1X229.39Y42.56
G1X229.05Y42.81
G1X228.43Y43.08
G1X227.78Y43.29
G1X226.75Y43.57
G1X225.72Y43.88
G1X225.55Y43.95
G1X225.4Y44.05
G1X225.26Y44.18
G1X225.15Y44.33
G1X225.07Y44.56
G1Y44.8
G1X225.14Y45.02
G1X225.28Y45.22
G1X225.46Y45.38
G1X225.67Y45.5
G1X225.93Y45.58
G1X226.19Y45.64
G1X226.45Y45.67
G1X226.72
G1X227.06Y45.65
G1X227.4Y45.59
G1X227.65Y45.49
G1X227.88Y45.35
G1X228.07Y45.16
G1X228.23Y44.94
G1X228.34Y44.68
G1X228.4Y44.41
G1X229.67Y44.58
G1X229.61Y44.9
G1X229.51Y45.2
G1X229.39Y45.5
G1X229.22Y45.77
G1X229.08Y45.94
G1X228.91Y46.09
G1X228.73Y46.22
G1X228.54Y46.33
G1X228.19Y46.49
G1X227.82Y46.6
G1X227.45Y46.68
G1X227.07Y46.72
G1X226.55Y46.74
G1X226.03Y46.7
G1X225.53Y46.59
G1X225.04Y46.41
G1X224.68Y46.21
G1X224.38Y45.95
G1X224.13Y45.64
G1X223.95Y45.3
G1X223.84Y44.92
G1X223.81Y44.53
G1X223.84Y44.13
G1X223.97Y43.74
G1X224.14Y43.43
G1X224.36Y43.16
G1X224.62Y42.94
G1X224.93Y42.77
G1X225.74Y42.47
G1X226.57Y42.23
G1X227.32Y42.04
G1X228.06Y41.8
G1X228.24Y41.71
G1X228.4Y41.58
G1X228.52Y41.41
G1X228.6Y41.22
G1X228.62Y40.99
G1X228.59Y40.76
G1X228.51Y40.54
G1X228.38Y40.34
G1X228.22Y40.19
G1X228.05Y40.05
G1X227.85Y39.95
G1X227.64Y39.88
G1X227.25Y39.81
G1X226.85Y39.79
G1X226.46Y39.82
G1X226.07Y39.89
G1X225.75Y40.02
G1X225.48Y40.2
G1X225.25Y40.43
G1X225.11Y40.65
G1X225Y40.89
G1X224.92Y41.13
G1X224.87Y41.39
G1X223.59Y41.19
G1X223.68Y40.78
G1X223.81Y40.4
G1X224Y40.03
G1X224.23Y39.69
G1X224.57Y39.36
G1X224.96Y39.1
G1X225.39Y38.92
G1X225.85Y38.81
G1X226.21Y38.76
G1X226.57Y38.73
G1X226.94
G1X227.3Y38.74
G1X227.7Y38.79
G1X228.09Y38.89
G1X228.46Y39.03
G1X228.82Y39.21
G1X229.1Y39.4
G1X229.35Y39.63
G1X229.55Y39.89
M5
G0X236.63Y43.47
; Layer 
M3
G1X236.69Y43.94
G1X236.83Y44.37
G1X237.03Y44.75
G1X237.3Y45.07
G1X237.62Y45.34
G1X237.98Y45.52
G1X238.38Y45.63
G1X238.81Y45.67
G1X239.13Y45.65
G1X239.44Y45.58
G1X239.73Y45.47
G1X240Y45.31
G1X240.24Y45.11
G1X240.45Y44.88
G1X240.62Y44.61
G1X240.74Y44.31
G1X240.85Y43.9
G1X240.91Y43.47
G1X236.63
M5
G0X235.24Y43.31
; Layer 
M3
G1X235.21Y42.76
G1X235.23Y42.21
G1X235.27Y41.81
G1X235.34Y41.42
G1X235.45Y41.03
G1X235.6Y40.66
G1X235.79Y40.29
G1X236.02Y39.96
G1X236.29Y39.67
G1X236.59Y39.41
G1X236.93Y39.18
G1X237.29Y39.01
G1X237.67Y38.87
G1X238.07Y38.79
G1X238.63Y38.73
G1X239.2
G1X239.69Y38.78
G1X240.18Y38.91
G1X240.64Y39.11
G1X241.06Y39.37
G1X241.47Y39.75
G1X241.81Y40.19
G1X242.06Y40.67
G1X242.24Y41.2
G1X240.89Y41.37
G1X240.74Y41
G1X240.55Y40.66
G1X240.34Y40.39
G1X240.1Y40.16
G1X239.75Y39.97
G1X239.38Y39.85
G1X239.01Y39.79
G1X238.63
G1X238.26Y39.87
G1X237.9Y40.01
G1X237.57Y40.2
G1X237.27Y40.46
G1X237.04Y40.76
G1X236.85Y41.09
G1X236.71Y41.44
G1X236.62Y41.81
G1X236.58Y42.1
G1X236.55Y42.4
G1X242.27
G1X242.28Y42.92
G1X242.25Y43.43
G1X242.17Y43.93
G1X242.04Y44.43
G1X241.83Y44.94
G1X241.55Y45.39
G1X241.2Y45.8
G1X240.78Y46.15
G1X240.33Y46.41
G1X239.84Y46.6
G1X239.32Y46.71
G1X238.8Y46.74
G1X238.34Y46.72
G1X237.89Y46.64
G1X237.46Y46.51
G1X237.04Y46.32
G1X236.77Y46.15
G1X236.51Y45.96
G1X236.28Y45.74
G1X236.07Y45.5
G1X235.88Y45.25
G1X235.71Y44.97
G1X235.57Y44.68
G1X235.46Y44.38
G1X235.33Y43.85
G1X235.24Y43.31
M5
G0X244.97Y41.42
; Layer 
M3
G1X245.15Y41.7
G1X245.28Y41.82
G1X245.43Y41.93
G1X245.59Y42.01
G1X245.76Y42.07
G1X246.56Y42.24
G1X247.36Y42.36
G1X247.74Y42.43
G1X248.11Y42.52
G1X248.47Y42.62
G1X248.83Y42.75
G1Y42.13
G1X248.77Y41.52
G1X248.69Y41.15
G1X248.53Y40.81
G1X248.31Y40.51
G1X248.03Y40.25
G1X247.66Y40.02
G1X247.27Y39.86
G1X246.85Y39.77
G1X246.42Y39.74
G1X246.06Y39.76
G1X245.77Y39.82
G1X245.49Y39.93
G1X245.33Y40.04
G1X245.19Y40.16
G1X245.07Y40.31
G1X244.97Y40.48
G1X244.88Y40.79
G1Y41.11
G1X244.97Y41.42
M5
G0X243.58Y41.55
; Layer 
M3
G1X243.5Y41.17
G1X243.49Y40.78
G1X243.55Y40.4
G1X243.67Y40.02
G1X243.87Y39.67
G1X244.15Y39.36
G1X244.48Y39.11
G1X244.85Y38.92
G1X245.24Y38.81
G1X245.55Y38.76
G1X245.86Y38.73
G1X246.17
G1X246.49
G1X247.05Y38.82
G1X247.59Y38.99
G1X248.1Y39.24
G1X248.57Y39.56
G1X248.93Y39.84
G1X248.97Y39.6
G1X249.02Y39.36
G1X249.1Y39.12
G1X249.19Y38.89
G1X250.55
G1X250.39Y39.24
G1X250.27Y39.61
G1X250.2Y39.98
G1X250.17Y40.37
G1X250.15Y41.02
G1X250.14Y41.68
G1Y42.96
G1Y44.24
G1Y44.51
G1X250.11Y44.77
G1X250.07Y45.04
G1X250.01Y45.29
G1X249.86Y45.64
G1X249.65Y45.95
G1X249.38Y46.2
G1X249.05Y46.39
G1X248.71Y46.52
G1X248.36Y46.63
G1X248Y46.69
G1X247.64Y46.72
G1X247.18Y46.74
G1X246.72Y46.72
G1X246.27Y46.67
G1X245.82Y46.59
G1X245.54Y46.51
G1X245.27Y46.41
G1X245.01Y46.28
G1X244.76Y46.14
G1X244.5Y45.93
G1X244.28Y45.69
G1X244.09Y45.41
G1X243.94Y45.12
G1X243.81Y44.75
G1X243.71Y44.38
G1X244.98Y44.2
G1X245.09Y44.56
G1X245.25Y44.9
G1X245.42Y45.15
G1X245.63Y45.34
G1X245.88Y45.48
G1X246.21Y45.59
G1X246.56Y45.64
G1X246.88Y45.67
G1X247.2Y45.66
G1X247.53Y45.62
G1X247.84Y45.55
G1X248.19Y45.42
G1X248.46Y45.22
G1X248.62Y45.03
G1X248.74Y44.78
G1X248.79Y44.56
G1X248.82Y44.34
G1X248.83Y44.11
G1Y43.88
G1Y43.76
G1X248.35Y43.63
G1X247.87Y43.52
G1X247.38Y43.43
G1X246.89Y43.36
G1X246.11Y43.27
G1X245.35Y43.12
G1X245.04Y43.02
G1X244.75Y42.89
G1X244.48Y42.73
G1X244.22Y42.54
G1X243.94Y42.25
G1X243.73Y41.91
G1X243.58Y41.55
M5
G0X252.18Y38.89
; Layer 
M3
G1X253.48
G1Y49.48
G1X252.18
G1Y38.89
M5
G0X255.47Y38.89
; Layer 
M3
G1X256.77
G1Y46.57
G1X255.47
G1Y38.89
M5
G0X258.72Y38.89
; Layer 
M3
G1X260.02
G1Y43.08
G1Y43.39
G1X260.05Y43.71
G1X260.1Y44.01
G1X260.17Y44.32
G1X260.24Y44.53
G1X260.34Y44.73
G1X260.47Y44.92
G1X260.62Y45.09
G1X260.94Y45.32
G1X261.28Y45.48
G1X261.65Y45.58
G1X262.06Y45.61
G1X262.4Y45.59
G1X262.73Y45.49
G1X263.03Y45.33
G1X263.29Y45.1
G1X263.39Y44.97
G1X263.47Y44.83
G1X263.53Y44.68
G1X263.57Y44.53
G1X263.63Y44.05
G1X263.65Y43.56
G1Y38.89
G1X264.95
G1Y43.61
G1Y44.24
G1X264.88Y44.87
G1X264.78Y45.25
G1X264.62Y45.61
G1X264.4Y45.93
G1X264.11Y46.2
G1X263.78Y46.4
G1X263.43Y46.56
G1X263.05Y46.67
G1X262.67Y46.72
G1X262.31Y46.74
G1X261.94Y46.72
G1X261.59Y46.66
G1X261.24Y46.56
G1X260.84Y46.37
G1X260.47Y46.13
G1X260.16Y45.83
G1X259.89Y45.47
G1Y46.57
G1X258.72
G1Y38.89
M5
G0X268.18Y41.04
; Layer 
M3
G1X268.07Y41.3
G1X267.96Y41.68
G1X267.89Y42.07
G1X267.85Y42.47
G1Y42.87
G1Y43.3
G1X267.91Y43.73
G1X268.02Y44.16
G1X268.18Y44.56
G1X268.42Y44.93
G1X268.73Y45.24
G1X269.09Y45.47
G1X269.5Y45.62
G1X269.77Y45.66
G1X270.04
G1X270.3Y45.63
G1X270.56Y45.56
G1X270.8Y45.45
G1X271.03Y45.31
G1X271.24Y45.15
G1X271.42Y44.95
G1X271.61Y44.68
G1X271.77Y44.4
G1X271.88Y44.1
G1X271.96Y43.78
G1X272.04Y43.22
G1X272.05Y42.66
G1X272Y42.1
G1X271.9Y41.55
G1X271.83Y41.32
G1X271.74Y41.11
G1X271.62Y40.9
G1X271.49Y40.72
G1X271.33Y40.54
G1X271.16Y40.39
G1X270.97Y40.25
G1X270.76Y40.14
G1X270.51Y40.05
G1X270.25Y40
G1X269.99Y39.97
G1X269.72Y39.99
G1X269.44Y40.04
G1X269.18Y40.12
G1X268.93Y40.25
G1X268.7Y40.4
G1X268.5Y40.59
G1X268.33Y40.8
G1X268.18Y41.04
M5
G0X266.8Y41.05
; Layer 
M3
G1X267.07Y40.49
G1X267.42Y39.98
G1X267.85Y39.53
G1X268.21Y39.29
G1X268.59Y39.1
G1X269.01Y38.98
G1X269.44Y38.91
G1X269.91Y38.89
G1X270.37Y38.95
G1X270.82Y39.08
G1X271.24Y39.29
G1X271.62Y39.56
G1X271.94Y39.9
G1Y39.48
G1Y39.06
G1X271.9Y38.64
G1X271.85Y38.23
G1X271.75Y37.94
G1X271.61Y37.67
G1X271.42Y37.42
G1X271.19Y37.22
G1X270.9Y37.06
G1X270.59Y36.95
G1X270.21Y36.88
G1X269.82Y36.86
G1X269.43Y36.88
G1X269.04Y36.95
G1X268.74Y37.06
G1X268.47Y37.22
G1X268.34Y37.34
G1X268.23Y37.48
G1X268.14Y37.63
G1X268.08Y37.8
G1X268.03Y38.07
G1X266.77Y38.26
G1Y37.92
G1X266.82Y37.58
G1X266.92Y37.26
G1X267.07Y36.95
G1X267.31Y36.65
G1X267.6Y36.39
G1X267.93Y36.18
G1X268.29Y36.02
G1X268.65Y35.91
G1X269.03Y35.84
G1X269.41Y35.79
G1X269.8
G1X270.35Y35.81
G1X270.85Y35.89
G1X271.32Y36.03
G1X271.63Y36.16
G1X271.91Y36.32
G1X272.18Y36.51
G1X272.43Y36.73
G1X272.68Y37.03
G1X272.88Y37.36
G1X273.03Y37.72
G1X273.12Y38.1
G1X273.19Y38.56
G1X273.24Y39.01
G1X273.26Y39.47
G1Y39.93
G1Y46.57
G1X272.06
G1Y45.64
G1X271.85Y45.89
G1X271.61Y46.11
G1X271.36Y46.3
G1X271.08Y46.46
G1X270.78Y46.58
G1X270.47Y46.67
G1X270.15Y46.72
G1X269.83Y46.74
G1X269.35Y46.71
G1X268.87Y46.61
G1X268.45Y46.46
G1X268.15Y46.29
G1X267.87Y46.1
G1X267.61Y45.88
G1X267.38Y45.62
G1X267.18Y45.32
G1X267Y45
G1X266.85Y44.67
G1X266.73Y44.32
G1X266.58Y43.66
G1X266.51Y42.99
G1X266.53Y42.31
G1X266.63Y41.64
G1X266.8Y41.05
M5
G0X256.77Y47.99
; Layer 
M3
G1Y49.48
G1X255.47
G1Y47.99
G1X256.77
M5
G0X257.67Y54.2
; Layer 
M3
G1X258.97
G1Y58.22
G1Y58.6
G1X259.02Y58.99
G1X259.09Y59.37
G1X259.19Y59.74
G1X259.27Y59.97
G1X259.4Y60.18
G1X259.56Y60.36
G1X259.74Y60.5
G1X259.95Y60.61
G1X260.18Y60.68
G1X260.42Y60.71
G1X260.67Y60.69
G1X260.86Y60.65
G1X261.04Y60.59
G1X261.22Y60.52
G1X261.39Y60.42
G1X261.84Y61.63
G1X261.53Y61.8
G1X261.2Y61.93
G1X260.85Y62.01
G1X260.5Y62.05
G1X260.21Y62.02
G1X259.94Y61.94
G1X259.69Y61.8
G1X259.47Y61.62
G1X259.13Y61.19
G1X258.84Y60.71
G1Y61.88
G1X257.67
G1Y54.2
M5
G0X262.45Y55.34
; Layer 
M3
G1X262.69Y55
G1X262.96Y54.72
G1X263.28Y54.49
G1X263.63Y54.31
G1X264Y54.19
G1X264.44Y54.1
G1X264.88Y54.05
G1X265.32Y54.03
G1X265.76Y54.05
G1X266.16Y54.1
G1X266.54Y54.2
G1X266.92Y54.34
G1X267.27Y54.52
G1X267.49Y54.66
G1X267.69Y54.82
G1X267.86Y55
G1X268.02Y55.2
G1X268.15Y55.42
G1X268.25Y55.65
G1X268.34Y55.89
G1X268.39Y56.14
G1X268.42Y56.44
G1X268.4Y56.75
G1X268.34Y57.04
G1X268.24Y57.33
G1X268.06Y57.63
G1X267.83Y57.88
G1X267.56Y58.1
G1X267.25Y58.25
G1X266.08Y58.65
G1X264.89Y58.97
G1X264.45Y59.1
G1X264.02Y59.26
G1X263.84Y59.36
G1X263.7Y59.51
G1X263.59Y59.67
G1X263.52Y59.87
G1Y60.1
G1X263.59Y60.33
G1X263.72Y60.52
G1X263.9Y60.68
G1X264.14Y60.82
G1X264.41Y60.91
G1X264.69Y60.95
G1X264.97Y60.98
G1X265.25
G1X265.54Y60.96
G1X265.84Y60.9
G1X266.12Y60.79
G1X266.35Y60.65
G1X266.54Y60.46
G1X266.69Y60.24
G1X266.79Y60
G1X266.85Y59.72
G1X268.12Y59.89
G1X268.06Y60.21
G1X267.97Y60.52
G1X267.84Y60.81
G1X267.68Y61.08
G1X267.53Y61.25
G1X267.37Y61.4
G1X267.19Y61.54
G1X266.99Y61.65
G1X266.53Y61.83
G1X266.06Y61.96
G1X265.58Y62.03
G1X265.08Y62.05
G1X264.62Y62.03
G1X264.17Y61.95
G1X263.72Y61.81
G1X263.3Y61.62
G1X262.99Y61.4
G1X262.72Y61.14
G1X262.52Y60.83
G1X262.37Y60.5
G1X262.28Y60.15
G1X262.26Y59.78
G1X262.31Y59.41
G1X262.42Y59.05
G1X262.59Y58.74
G1X262.81Y58.47
G1X263.08Y58.25
G1X263.39Y58.08
G1X263.87Y57.89
G1X264.36Y57.72
G1X264.86Y57.58
G1X265.37Y57.46
G1X266Y57.28
G1X266.62Y57.06
G1X266.81Y56.93
G1X266.95Y56.76
G1X267.05Y56.55
G1X267.08Y56.32
G1X267.06Y56.14
G1X267.01Y55.97
G1X266.94Y55.8
G1X266.84Y55.65
G1X266.64Y55.46
G1X266.4Y55.31
G1X266.08Y55.19
G1X265.74Y55.12
G1X265.32Y55.1
G1X264.89Y55.12
G1X264.54Y55.2
G1X264.21Y55.33
G1X264Y55.46
G1X263.82Y55.62
G1X263.66Y55.8
G1X263.54Y56.01
G1X263.4Y56.34
G1X263.33Y56.69
G1X262.05Y56.49
G1X262.13Y56.09
G1X262.27Y55.7
G1X262.45Y55.34
M5
G0X270.33Y55.68
; Layer 
M3
G1Y54.2
G1X271.81
G1Y55.68
G1X270.33
M5
G0X254.67Y58.77
; Layer 
M3
G1X250.38
G1X250.45Y59.25
G1X250.58Y59.68
G1X250.79Y60.05
G1X251.06Y60.38
G1X251.38Y60.64
G1X251.74Y60.83
G1X252.13Y60.94
G1X252.56Y60.98
G1X252.84Y60.97
G1X253.11Y60.92
G1X253.36Y60.83
G1X253.6Y60.72
G1X253.83Y60.57
G1X254.03Y60.39
G1X254.21Y60.18
G1X254.36Y59.95
G1X254.51Y59.6
G1X254.6Y59.23
G1X254.67Y58.77
M5
G0X256Y58.73
; Layer 
M3
G1X255.92Y59.24
G1X255.79Y59.74
G1X255.68Y60.03
G1X255.55Y60.32
G1X255.39Y60.58
G1X255.2Y60.84
G1X255Y61.07
G1X254.77Y61.28
G1X254.52Y61.47
G1X254.25Y61.64
G1X253.84Y61.82
G1X253.41Y61.95
G1X252.97Y62.03
G1X252.52Y62.05
G1X252.08Y62.02
G1X251.64Y61.94
G1X251.21Y61.81
G1X250.8Y61.63
G1X250.52Y61.46
G1X250.27Y61.27
G1X250.03Y61.05
G1X249.82Y60.81
G1X249.63Y60.56
G1X249.46Y60.28
G1X249.33Y60
G1X249.21Y59.69
G1X249.1Y59.28
G1X249.03Y58.85
G1X248.98Y58.43
G1X248.96Y58
G1X248.98Y57.58
G1X249.03Y57.15
G1X249.1Y56.73
G1X249.21Y56.31
G1X249.38Y55.89
G1X249.61Y55.5
G1X249.88Y55.14
G1X250.2Y54.83
G1X250.56Y54.57
G1X250.96Y54.35
G1X251.38Y54.19
G1X251.83Y54.09
G1X252.38Y54.04
G1X252.95
G1X253.45Y54.09
G1X253.93Y54.22
G1X254.39Y54.42
G1X254.82Y54.68
G1X255.17Y55
G1X255.48Y55.37
G1X255.72Y55.78
G1X255.9Y56.22
G1X256Y56.51
G1X254.65Y56.68
G1X254.5Y56.31
G1X254.3Y55.96
G1X254.05Y55.65
G1X253.73Y55.4
G1X253.37Y55.22
G1X252.97Y55.12
G1X252.55Y55.09
G1X252.14Y55.14
G1X251.74Y55.27
G1X251.37Y55.47
G1X251.05Y55.75
G1X250.78Y56.08
G1X250.58Y56.44
G1X250.44Y56.84
G1X250.36Y57.27
G1X250.31Y57.71
G1X256.03
G1Y58.22
G1X256Y58.73
M5
G0X246.45Y58.3
; Layer 
M3
G1Y57.94
G1X246.43Y57.57
G1X246.38Y57.21
G1X246.31Y56.85
G1X246.21Y56.5
G1X246.01Y56.08
G1X245.73Y55.71
G1X245.37Y55.42
G1X244.96Y55.2
G1X244.76Y55.15
G1X244.55Y55.11
G1X244.34Y55.1
G1X244.14Y55.11
G1X243.78Y55.19
G1X243.44Y55.34
G1X243.15Y55.55
G1X242.89Y55.81
G1X242.71Y56.08
G1X242.56Y56.37
G1X242.45Y56.68
G1X242.38Y56.99
G1X242.31Y57.57
G1X242.29Y58.15
G1X242.34Y58.73
G1X242.45Y59.3
G1X242.62Y59.77
G1X242.88Y60.19
G1X243.22Y60.55
G1X243.62Y60.84
G1X243.89Y60.95
G1X244.16Y61.01
G1X244.44Y61.03
G1X244.72Y61
G1X244.98Y60.93
G1X245.24Y60.82
G1X245.48Y60.67
G1X245.69Y60.47
G1X245.9Y60.23
G1X246.07Y59.97
G1X246.2Y59.69
G1X246.3Y59.39
G1X246.37Y59.03
G1X246.42Y58.66
G1X246.45Y58.3
M5
G0X247.77Y58.32
; Layer 
M3
G1X247.71Y58.99
G1X247.56Y59.65
G1X247.45Y59.99
G1X247.3Y60.32
G1X247.13Y60.64
G1X246.92Y60.93
G1X246.69Y61.19
G1X246.44Y61.41
G1X246.17Y61.6
G1X245.87Y61.76
G1X245.45Y61.92
G1X244.99Y62.02
G1X244.53Y62.05
G1X244.2Y62.04
G1X243.87Y61.98
G1X243.55Y61.89
G1X243.25Y61.76
G1X242.98Y61.58
G1X242.73Y61.37
G1X242.5Y61.14
G1X242.3Y60.88
G1Y61.88
G1X241.12
G1Y51.26
G1X242.42
G1Y55
G1X242.61Y54.78
G1X242.83Y54.59
G1X243.06Y54.42
G1X243.32Y54.28
G1X243.58Y54.17
G1X243.86Y54.09
G1X244.14Y54.05
G1X244.44Y54.03
G1X244.77Y54.05
G1X245.09Y54.1
G1X245.41Y54.19
G1X245.72Y54.31
G1X246.13Y54.53
G1X246.5Y54.81
G1X246.84Y55.15
G1X247.12Y55.53
G1X247.3Y55.87
G1X247.46Y56.23
G1X247.58Y56.6
G1X247.67Y56.98
G1X247.76Y57.65
G1X247.77Y58.32
M5
G0X238.2Y58.08
; Layer 
M3
G1Y57.68
G1X238.15Y57.28
G1X238.07Y56.88
G1X237.95Y56.5
G1X237.8Y56.17
G1X237.59Y55.87
G1X237.35Y55.62
G1X237.07Y55.41
G1X236.76Y55.26
G1X236.43Y55.15
G1X236.07Y55.1
G1X235.71Y55.11
G1X235.42Y55.16
G1X235.13Y55.25
G1X234.87Y55.38
G1X234.63Y55.54
G1X234.41Y55.74
G1X234.22Y55.96
G1X234.06Y56.21
G1X233.94Y56.49
G1X233.82Y56.86
G1X233.74Y57.25
G1X233.7Y57.64
G1X233.69Y58.04
G1Y58.44
G1X233.74Y58.83
G1X233.82Y59.21
G1X233.94Y59.59
G1X234.12Y59.97
G1X234.37Y60.3
G1X234.68Y60.56
G1X235.02Y60.77
G1X235.4Y60.91
G1X235.8Y60.97
G1X236.21
G1X236.62Y60.87
G1X236.85Y60.77
G1X237.05Y60.66
G1X237.25Y60.53
G1X237.43Y60.37
G1X237.59Y60.2
G1X237.73Y60.01
G1X237.85Y59.81
G1X237.95Y59.59
G1X238.06Y59.22
G1X238.15Y58.85
G1X238.19Y58.47
G1X238.2Y58.08
M5
G0X239.54Y58.12
; Layer 
M3
G1X239.5Y58.76
G1X239.4Y59.4
G1X239.28Y59.8
G1X239.12Y60.17
G1X238.92Y60.52
G1X238.68Y60.84
G1X238.41Y61.13
G1X238.1Y61.39
G1X237.76Y61.61
G1X237.39Y61.79
G1X237.01Y61.91
G1X236.63Y61.99
G1X236.24Y62.04
G1X235.85
G1X235.47Y62.02
G1X235.08Y61.96
G1X234.71Y61.85
G1X234.34Y61.71
G1X234.05Y61.57
G1X233.78Y61.4
G1X233.53Y61.2
G1X233.31Y60.98
G1X233.1Y60.73
G1X232.92Y60.47
G1X232.77Y60.19
G1X232.65Y59.89
G1X232.54Y59.57
G1X232.46Y59.23
G1X232.4Y58.9
G1X232.37Y58.55
G1X232.35Y57.99
G1X232.37Y57.43
G1X232.46Y56.87
G1X232.6Y56.32
G1X232.79Y55.86
G1X233.05Y55.43
G1X233.36Y55.05
G1X233.72Y54.73
G1X234.13Y54.46
G1X234.58Y54.25
G1X235.05Y54.11
G1X235.56Y54.05
G1X236Y54.03
G1X236.44Y54.06
G1X236.91Y54.15
G1X237.37Y54.3
G1X237.8Y54.5
G1X238.2Y54.76
G1X238.44Y54.96
G1X238.65Y55.18
G1X238.84Y55.42
G1X239.01Y55.68
G1X239.15Y55.95
G1X239.27Y56.23
G1X239.36Y56.52
G1X239.43Y56.83
G1X239.51Y57.47
G1X239.54Y58.12
M5
G0X230.85Y54.2
; Layer 
M3
G1Y64.79
G1X229.55
G1Y54.2
G1X230.85
M5
G0X226.57Y58.77
; Layer 
M3
G1X222.28
G1X222.35Y59.25
G1X222.48Y59.68
G1X222.68Y60.05
G1X222.95Y60.38
G1X223.28Y60.64
G1X223.64Y60.83
G1X224.03Y60.94
G1X224.46Y60.98
G1X224.74Y60.97
G1X225Y60.92
G1X225.26Y60.83
G1X225.5Y60.72
G1X225.72Y60.57
G1X225.93Y60.39
G1X226.1Y60.18
G1X226.25Y59.95
G1X226.41Y59.6
G1X226.5Y59.23
G1X226.57Y58.77
M5
G0X227.9Y58.73
; Layer 
M3
G1X227.82Y59.24
G1X227.69Y59.74
G1X227.58Y60.03
G1X227.45Y60.32
G1X227.29Y60.58
G1X227.1Y60.84
G1X226.89Y61.07
G1X226.66Y61.28
G1X226.42Y61.47
G1X226.15Y61.64
G1X225.73Y61.82
G1X225.3Y61.95
G1X224.86Y62.03
G1X224.42Y62.05
G1X223.98Y62.02
G1X223.54Y61.94
G1X223.11Y61.81
G1X222.69Y61.63
G1X222.42Y61.46
G1X222.16Y61.27
G1X221.93Y61.05
G1X221.72Y60.81
G1X221.53Y60.56
G1X221.36Y60.28
G1X221.22Y60
G1X221.11Y59.69
G1X221Y59.28
G1X220.92Y58.85
G1X220.88Y58.43
G1X220.86Y58
G1X220.88Y57.58
G1X220.92Y57.15
G1X221Y56.73
G1X221.11Y56.31
G1X221.28Y55.89
G1X221.51Y55.5
G1X221.78Y55.14
G1X222.1Y54.83
G1X222.46Y54.57
G1X222.85Y54.35
G1X223.28Y54.19
G1X223.72Y54.09
G1X224.28Y54.04
G1X224.84
G1X225.34Y54.09
G1X225.83Y54.22
G1X226.29Y54.42
G1X226.72Y54.68
G1X227.07Y55
G1X227.37Y55.37
G1X227.62Y55.78
G1X227.8Y56.22
G1X227.89Y56.51
G1X226.55Y56.68
G1X226.4Y56.31
G1X226.2Y55.96
G1X225.94Y55.65
G1X225.63Y55.4
G1X225.27Y55.22
G1X224.87Y55.12
G1X224.45Y55.09
G1X224.04Y55.14
G1X223.64Y55.27
G1X223.27Y55.47
G1X222.95Y55.75
G1X222.68Y56.08
G1X222.48Y56.44
G1X222.34Y56.84
G1X222.25Y57.27
G1X222.21Y57.71
G1X227.93
G1Y58.22
G1X227.9Y58.73
M5
G0X220.3Y61.88
; Layer 
M3
G1X218.96
G1X217.26Y57.2
G1X217Y56.47
G1X216.77Y55.73
G1X216.54Y56.51
G1X216.28Y57.28
G1X214.63Y61.88
G1X213.27
G1X216.18Y54.2
G1X217.4
G1X220.3Y61.88
M5
G0X210.72Y59.95
; Layer 
M3
G1X210.88Y59.6
G1X210.97Y59.23
G1X211.04Y58.77
G1X206.75
G1X206.82Y59.25
G1X206.95Y59.68
G1X207.15Y60.05
G1X207.42Y60.38
G1X207.75Y60.64
G1X208.11Y60.83
G1X208.5Y60.94
G1X208.93Y60.98
G1X209.21Y60.97
G1X209.47Y60.92
G1X209.73Y60.83
G1X209.97Y60.72
G1X210.19Y60.57
G1X210.4Y60.39
G1X210.57Y60.18
G1X210.72Y59.95
M5
G0X211.92Y60.32
; Layer 
M3
G1X211.76Y60.58
G1X211.57Y60.84
G1X211.36Y61.07
G1X211.13Y61.28
G1X210.89Y61.47
G1X210.62Y61.64
G1X210.2Y61.82
G1X209.77Y61.95
G1X209.33Y62.03
G1X208.89Y62.05
G1X208.45Y62.02
G1X208.01Y61.94
G1X207.58Y61.81
G1X207.16Y61.63
G1X206.89Y61.46
G1X206.63Y61.27
G1X206.4Y61.05
G1X206.19Y60.81
G1X206Y60.56
G1X205.83Y60.28
G1X205.69Y60
G1X205.58Y59.69
G1X205.47Y59.28
G1X205.39Y58.85
G1X205.35Y58.43
G1X205.33Y58
G1X205.35Y57.58
G1X205.39Y57.15
G1X205.47Y56.73
G1X205.58Y56.31
G1X205.75Y55.89
G1X205.98Y55.5
G1X206.25Y55.14
G1X206.57Y54.83
G1X206.93Y54.57
G1X207.32Y54.35
G1X207.75Y54.19
G1X208.19Y54.09
G1X208.75Y54.04
G1X209.31
G1X209.81Y54.09
G1X210.3Y54.22
G1X210.76Y54.42
G1X211.19Y54.68
G1X211.54Y55
G1X211.84Y55.37
G1X212.09Y55.78
G1X212.27Y56.22
G1X212.36Y56.51
G1X211.02Y56.68
G1X210.87Y56.31
G1X210.67Y55.96
G1X210.41Y55.65
G1X210.1Y55.4
G1X209.74Y55.22
G1X209.34Y55.12
G1X208.92Y55.09
G1X208.51Y55.14
G1X208.11Y55.27
G1X207.74Y55.47
G1X207.42Y55.75
G1X207.15Y56.08
G1X206.95Y56.44
G1X206.81Y56.84
G1X206.72Y57.27
G1X206.68Y57.71
G1X212.4
G1Y58.22
G1X212.37Y58.73
G1X212.29Y59.24
G1X212.16Y59.74
G1X212.05Y60.03
G1X211.92Y60.32
M5
G0X202.31Y59.37
; Layer 
M3
G1X202.4Y59.02
G1X202.44Y58.66
G1X202.48Y58.16
G1Y57.66
G1X202.43Y57.17
G1X202.33Y56.68
G1X202.18Y56.24
G1X201.93Y55.85
G1X201.61Y55.53
G1X201.22Y55.27
G1X200.99Y55.18
G1X200.74Y55.12
G1X200.49Y55.1
G1X200.23Y55.11
G1X199.87Y55.2
G1X199.53Y55.35
G1X199.23Y55.56
G1X198.97Y55.83
G1X198.78Y56.1
G1X198.63Y56.4
G1X198.52Y56.71
G1X198.44Y57.03
G1X198.36Y57.68
G1Y58.33
G1X198.43Y58.98
G1X198.58Y59.62
G1X198.67Y59.85
G1X198.79Y60.07
G1X198.94Y60.27
G1X199.1Y60.45
G1X199.29Y60.61
G1X199.5Y60.74
G1X199.73Y60.85
G1X199.97Y60.93
G1X200.27Y60.97
G1X200.57
G1X200.86Y60.91
G1X201.13Y60.81
G1X201.39Y60.68
G1X201.63Y60.5
G1X201.84Y60.29
G1X202.02Y60.04
G1X202.18Y59.71
G1X202.31Y59.37
M5
G0X202.37Y60.99
; Layer 
M3
G1X202.18Y61.23
G1X201.95Y61.44
G1X201.71Y61.63
G1X201.45Y61.78
G1X201.17Y61.9
G1X200.87Y61.99
G1X200.57Y62.04
G1X200.26
G1X199.81Y62.02
G1X199.36Y61.92
G1X199.04Y61.81
G1X198.74Y61.66
G1X198.45Y61.48
G1X198.19Y61.27
G1X197.87Y60.93
G1X197.61Y60.55
G1X197.39Y60.09
G1X197.22Y59.6
G1X197.11Y59.11
G1X197.04Y58.59
G1X197.02Y58.17
G1Y57.75
G1X197.06Y57.34
G1X197.12Y56.92
G1X197.21Y56.55
G1X197.33Y56.2
G1X197.49Y55.85
G1X197.67Y55.52
G1X197.83Y55.29
G1X198.01Y55.07
G1X198.21Y54.86
G1X198.43Y54.68
G1X198.66Y54.52
G1X198.91Y54.38
G1X199.16Y54.26
G1X199.43Y54.16
G1X199.73Y54.09
G1X200.04Y54.04
G1X200.35Y54.03
G1X200.66Y54.05
G1X200.93Y54.09
G1X201.2Y54.16
G1X201.46Y54.26
G1X201.7Y54.39
G1X201.92Y54.55
G1X202.12Y54.74
G1X202.3Y54.94
G1X202.46Y55.17
G1Y54.2
G1X203.67
G1Y64.79
G1X202.37
G1Y60.99
M5
G0X190.22Y59.49
; Layer 
M3
G1X190.33Y59.05
G1X190.42Y58.41
G1Y57.76
G1X190.34Y57.12
G1X190.18Y56.5
G1X190.06Y56.22
G1X189.9Y55.97
G1X189.71Y55.75
G1X189.49Y55.55
G1X189.25Y55.39
G1X188.99Y55.26
G1X188.71Y55.16
G1X188.41Y55.11
G1X188.17Y55.1
G1X187.94Y55.11
G1X187.61Y55.17
G1X187.29Y55.29
G1X187.01Y55.44
G1X186.75Y55.64
G1X186.52Y55.87
G1X186.33Y56.14
G1X186.18Y56.43
G1X186.08Y56.75
G1X185.95Y57.39
G1X185.91Y58.04
G1X185.95Y58.69
G1X186.08Y59.33
G1X186.17Y59.62
G1X186.3Y59.89
G1X186.47Y60.14
G1X186.66Y60.36
G1X186.89Y60.55
G1X187.14Y60.71
G1X187.41Y60.84
G1X187.71Y60.92
G1X188.16Y60.97
G1X188.61Y60.93
G1X189.04Y60.79
G1X189.44Y60.56
G1X189.76Y60.25
G1X190.03Y59.89
G1X190.22Y59.49
M5
G0X191.54Y59.71
; Layer 
M3
G1X191.42Y60.01
G1X191.28Y60.3
G1X191.12Y60.57
G1X190.93Y60.82
G1X190.71Y61.06
G1X190.48Y61.27
G1X190.22Y61.47
G1X189.95Y61.62
G1X189.66Y61.76
G1X189.37Y61.87
G1X189.07Y61.95
G1X188.76Y62.01
G1X188.45Y62.04
G1X188.14Y62.05
G1X187.83Y62.03
G1X187.44Y61.99
G1X187.07Y61.91
G1X186.71Y61.78
G1X186.37Y61.62
G1X186.05Y61.42
G1X185.75Y61.18
G1X185.48Y60.91
G1X185.24Y60.61
G1X185.03Y60.24
G1X184.86Y59.86
G1X184.73Y59.45
G1X184.65Y59.03
G1X184.6Y58.56
G1X184.58Y58.08
G1X184.59Y57.6
G1X184.64Y57.12
G1X184.71Y56.73
G1X184.82Y56.36
G1X184.96Y55.99
G1X185.13Y55.64
G1X185.37Y55.3
G1X185.63Y55
G1X185.93Y54.74
G1X186.26Y54.51
G1X186.61Y54.33
G1X186.99Y54.19
G1X187.38Y54.1
G1X187.78Y54.05
G1X188.22Y54.03
G1X188.66Y54.06
G1X189.14Y54.15
G1X189.59Y54.29
G1X190.02Y54.5
G1X190.43Y54.76
G1X190.77Y55.06
G1X191.07Y55.42
G1X191.31Y55.81
G1X191.49Y56.23
G1X191.63Y56.67
G1X191.7Y57.13
G1X191.76Y57.7
G1Y58.27
G1X191.71Y58.84
G1X191.62Y59.4
G1X191.54Y59.71
M5
G0X184.15Y61.88
; Layer 
M3
G1X182.89
G1X181.13Y55.96
G1X180.36Y58.92
G1X179.6Y61.88
G1X178.26
G1X177.05Y57.38
G1X176.85Y56.59
G1X176.65Y55.8
G1X175.81Y58.84
G1X174.97Y61.88
G1X173.63
G1X175.98Y54.2
G1X177.33
G1X178.88Y60.1
G1X179.18Y58.8
G1X180.4Y54.2
G1X181.75
G1X184.15Y61.88
M5
G0X173.26Y61.88
; Layer 
M3
G1X171.95
G1Y64.55
G1X170.66Y63.77
G1Y61.88
G1X169.7
G1Y60.87
G1X170.66
G1Y56.45
G1X170.67Y55.8
G1X170.75Y55.15
G1X170.83Y54.89
G1X170.96Y54.66
G1X171.14Y54.47
G1X171.37Y54.33
G1X171.55Y54.24
G1X171.74Y54.18
G1X171.93Y54.14
G1X172.13Y54.12
G1X172.53Y54.1
G1X172.93Y54.13
G1X173.45Y54.22
G1X173.26Y55.37
G1X172.84Y55.32
G1X172.43Y55.34
G1X172.25Y55.41
G1X172.11Y55.52
G1X172.01Y55.71
G1X171.97Y55.92
G1X171.95Y56.15
G1Y56.38
G1Y60.87
G1X173.26
G1Y61.88
M5
G0X181.18Y69.51
; Layer 
M3
G1X187.79
G1Y70.76
G1X182.57
G1Y80.1
G1X181.18
G1Y69.51
M5
G0X189.36Y69.51
; Layer 
M3
G1X190.66
G1Y77.18
G1X189.36
G1Y69.51
M5
G0X194.1Y71.21
; Layer 
M3
G1X193.93Y71.42
G1X193.78Y71.66
G1X193.67Y71.92
G1X193.56Y72.3
G1X193.49Y72.69
G1X193.45Y73.09
G1Y73.48
G1Y73.86
G1X193.49Y74.23
G1X193.57Y74.59
G1X193.68Y74.95
G1X193.79Y75.21
G1X193.94Y75.44
G1X194.11Y75.65
G1X194.31Y75.84
G1X194.53Y75.99
G1X194.77Y76.12
G1X195.03Y76.21
G1X195.31Y76.27
G1X195.58
G1X195.86Y76.25
G1X196.12Y76.18
G1X196.37Y76.08
G1X196.6Y75.95
G1X196.82Y75.79
G1X197.01Y75.59
G1X197.17Y75.37
G1X197.34Y75.08
G1X197.47Y74.76
G1X197.56Y74.44
G1X197.61Y74.1
G1X197.66Y73.55
G1X197.64Y72.99
G1X197.56Y72.44
G1X197.42Y71.91
G1X197.28Y71.6
G1X197.09Y71.32
G1X196.86Y71.08
G1X196.6Y70.89
G1X196.31Y70.74
G1X195.99Y70.64
G1X195.66Y70.59
G1X195.32Y70.6
G1X195.04Y70.65
G1X194.78Y70.74
G1X194.53Y70.86
G1X194.31Y71.02
G1X194.1Y71.21
M5
G0X193.02Y70.6
; Layer 
M3
G1X193.45Y70.16
G1X193.81Y69.91
G1X194.19Y69.72
G1X194.61Y69.6
G1X195.04Y69.53
G1X195.36Y69.51
G1X195.68Y69.52
G1X196Y69.57
G1X196.31Y69.65
G1X196.66Y69.8
G1X196.99Y70
G1X197.28Y70.24
G1X197.54Y70.51
G1Y69.74
G1X197.48Y68.96
G1X197.39Y68.63
G1X197.24Y68.33
G1X197.04Y68.07
G1X196.79Y67.84
G1X196.52Y67.68
G1X196.24Y67.58
G1X195.96Y67.52
G1X195.68Y67.48
G1X195.39
G1X195.12
G1X194.85Y67.52
G1X194.59Y67.58
G1X194.33Y67.68
G1X194.1Y67.81
G1X193.9Y67.99
G1X193.8Y68.15
G1X193.72Y68.32
G1X193.66Y68.5
G1X193.63Y68.69
G1X192.37Y68.88
G1Y68.6
G1X192.4Y68.33
G1X192.47Y68.06
G1X192.56Y67.79
G1X192.71Y67.51
G1X192.9Y67.26
G1X193.14Y67.05
G1X193.4Y66.87
G1X193.79Y66.68
G1X194.21Y66.54
G1X194.63Y66.45
G1X195.07Y66.41
G1X195.51
G1X195.96Y66.43
G1X196.45Y66.51
G1X196.93Y66.64
G1X197.23Y66.77
G1X197.51Y66.93
G1X197.78Y67.12
G1X198.03Y67.34
G1X198.29Y67.66
G1X198.5Y68.01
G1X198.62Y68.34
G1X198.71Y68.67
G1X198.78Y69.01
G1X198.82Y69.36
G1X198.86Y69.96
G1Y70.55
G1Y77.18
G1X197.67
G1Y76.26
G1X197.45Y76.51
G1X197.22Y76.73
G1X196.96Y76.92
G1X196.68Y77.07
G1X196.38Y77.2
G1X196.08Y77.29
G1X195.76Y77.34
G1X195.43Y77.35
G1X194.93Y77.33
G1X194.48Y77.23
G1X194.05Y77.07
G1X193.75Y76.91
G1X193.47Y76.72
G1X193.22Y76.49
G1X192.99Y76.24
G1X192.78Y75.94
G1X192.6Y75.62
G1X192.45Y75.29
G1X192.33Y74.94
G1X192.18Y74.28
G1X192.11Y73.61
G1X192.13Y72.93
G1X192.23Y72.26
G1X192.4Y71.67
G1X192.67Y71.11
G1X193.02Y70.6
M5
G0X200.74Y69.51
; Layer 
M3
G1X202.04
G1Y73.71
G1Y74.07
G1X202.08Y74.43
G1X202.15Y74.78
G1X202.25Y75.12
G1X202.43Y75.43
G1X202.66Y75.69
G1X202.93Y75.91
G1X203.24Y76.07
G1X203.61Y76.18
G1X203.99Y76.23
G1X204.38Y76.21
G1X204.75Y76.12
G1X205.03Y75.99
G1X205.26Y75.79
G1X205.45Y75.53
G1X205.58Y75.22
G1X205.67Y74.8
G1X205.69Y74.37
G1Y69.51
G1X206.99
G1Y74.37
G1Y74.72
G1X206.96Y75.07
G1X206.91Y75.42
G1X206.83Y75.76
G1X206.76Y76
G1X206.65Y76.22
G1X206.52Y76.43
G1X206.36Y76.62
G1X206Y76.9
G1X205.61Y77.11
G1X205.19Y77.26
G1X204.75Y77.33
G1X204.32Y77.36
G1X203.89Y77.33
G1X203.47Y77.24
G1X203.07Y77.09
G1X202.78Y76.93
G1X202.51Y76.75
G1X202.26Y76.54
G1X202.04Y76.3
G1Y80.1
G1X200.74
G1Y69.51
M5
G0X209.38Y70.33
; Layer 
M3
G1X209.51Y70.07
G1X209.69Y69.84
G1X209.92Y69.66
G1X210.18Y69.54
G1X210.62Y69.44
G1X211.06Y69.41
G1X211.53Y69.44
G1X212.05Y69.53
G1X211.86Y70.68
G1X211.45Y70.63
G1X211.04Y70.65
G1X210.84Y70.72
G1X210.72Y70.81
G1X210.64Y70.94
G1X210.59Y71.08
G1X210.57Y71.23
G1X210.56Y71.43
G1Y76.17
G1X211.86
G1Y77.18
G1X210.56
G1Y79.86
G1X209.26Y79.08
G1Y77.18
G1X208.31
G1Y76.17
G1X209.26
G1Y71.48
G1X209.29Y70.9
G1X209.38Y70.33
M5
G0X214.68Y70.76
; Layer 
M3
G1Y74.4
G1X217.12
G1X217.75Y74.38
G1X218.37Y74.3
G1X218.64Y74.24
G1X218.9Y74.13
G1X219.13Y73.99
G1X219.34Y73.81
G1X219.55Y73.54
G1X219.7Y73.24
G1X219.79Y72.92
G1X219.82Y72.58
G1X219.79Y72.2
G1X219.67Y71.83
G1X219.49Y71.5
G1X219.23Y71.21
G1X218.92Y71.03
G1X218.59Y70.89
G1X218.25Y70.8
G1X217.89Y70.77
G1X217.62
G1X214.68
M5
G0X214.68Y75.65
; Layer 
M3
G1Y78.85
G1X216.79
G1X217.46Y78.84
G1X218.12Y78.76
G1X218.31Y78.73
G1X218.49Y78.67
G1X218.65Y78.6
G1X218.81Y78.49
G1X219.02Y78.28
G1X219.19Y78.04
G1X219.3Y77.77
G1X219.36Y77.48
G1X219.38Y77.23
G1X219.36Y76.98
G1X219.31Y76.74
G1X219.22Y76.5
G1X219.05Y76.25
G1X218.84Y76.04
G1X218.58Y75.88
G1X218.3Y75.77
G1X217.97Y75.71
G1X217.63Y75.67
G1X217.3Y75.65
G1X216.96
G1X214.68
M5
G0X219.27Y75.15
; Layer 
M3
G1X219.6Y75.33
G1X219.9Y75.55
G1X220.16Y75.81
G1X220.38Y76.11
G1X220.53Y76.38
G1X220.64Y76.67
G1X220.71Y76.96
G1X220.75Y77.26
G1Y77.57
G1X220.71Y77.87
G1X220.64Y78.16
G1X220.52Y78.45
G1X220.39Y78.71
G1X220.23Y78.95
G1X220.05Y79.17
G1X219.85Y79.37
G1X219.6Y79.55
G1X219.35Y79.7
G1X219.08Y79.82
G1X218.79Y79.92
G1X218.41Y80
G1X218.03Y80.06
G1X217.64Y80.09
G1X217.25
G1X213.27
G1Y69.51
G1X217.31
G1X217.79Y69.53
G1X218.19Y69.55
G1X218.58Y69.6
G1X218.97Y69.68
G1X219.35Y69.79
G1X219.61Y69.88
G1X219.86Y70
G1X220.09Y70.15
G1X220.3Y70.32
G1X220.5Y70.51
G1X220.67Y70.72
G1X220.82Y70.95
G1X220.95Y71.2
G1X221.06Y71.46
G1X221.15Y71.74
G1X221.22Y72.02
G1X221.25Y72.3
G1X221.26Y72.59
G1X221.25Y72.88
G1X221.21Y73.16
G1X221.14Y73.44
G1X220.98Y73.83
G1X220.75Y74.18
G1X220.46Y74.5
G1X220.12Y74.77
G1X219.71Y74.99
G1X219.27Y75.15
M5
G0X223.05Y77.18
; Layer 
M3
G1Y72.05
G1Y71.77
G1X223.08Y71.49
G1X223.13Y71.21
G1X223.19Y70.94
G1X223.3Y70.64
G1X223.45Y70.36
G1X223.65Y70.11
G1X223.88Y69.89
G1X224.13Y69.74
G1X224.38Y69.61
G1X224.64Y69.51
G1X224.91Y69.43
G1X225.19Y69.37
G1X225.47Y69.34
G1X225.75
G1X226.04Y69.36
G1X226.3Y69.4
G1X226.56Y69.46
G1X226.81Y69.55
G1X227.05Y69.67
G1X227.27Y69.8
G1X227.49Y69.96
G1X227.68Y70.14
G1X227.87Y70.33
G1X228.1Y70.64
G1Y69.51
G1X229.26
G1Y77.18
G1X227.96
G1Y73.07
G1Y72.77
G1X227.94Y72.46
G1X227.9Y72.16
G1X227.84Y71.86
G1X227.73Y71.52
G1X227.55Y71.22
G1X227.31Y70.96
G1X227.02Y70.76
G1X226.64Y70.58
G1X226.23Y70.48
G1X225.81Y70.46
G1X225.39Y70.53
G1X225.18Y70.61
G1X225Y70.71
G1X224.83Y70.84
G1X224.69Y70.99
G1X224.57Y71.17
G1X224.48Y71.36
G1X224.42Y71.56
G1X224.39Y71.77
G1X224.36Y72.12
G1X224.35Y72.46
G1Y77.18
G1X223.05
M5
G0X231.34Y77.18
; Layer 
M3
G1Y69.51
G1X232.64
G1Y73.53
G1X232.65Y73.97
G1X232.71Y74.41
G1X232.8Y74.84
G1X232.94Y75.26
G1X233.05Y75.45
G1X233.18Y75.62
G1X233.34Y75.76
G1X233.52Y75.87
G1X233.71Y75.95
G1X233.92Y76
G1X234.13Y76.02
G1X234.35Y76
G1X234.71Y75.9
G1X235.06Y75.73
G1X235.51Y76.94
G1X235.27Y77.07
G1X235.03Y77.18
G1X234.77Y77.27
G1X234.5Y77.33
G1X234.31Y77.35
G1X234.12
G1X233.92Y77.33
G1X233.74Y77.29
G1X233.57Y77.23
G1X233.42Y77.15
G1X233.28Y77.05
G1X233.15Y76.93
G1X232.8Y76.5
G1X232.51Y76.02
G1Y77.18
G1X231.34
M5
G0X236.24Y77.18
; Layer 
M3
G1Y69.51
G1X237.54
G1Y73.7
G1Y74.02
G1X237.57Y74.33
G1X237.62Y74.64
G1X237.69Y74.94
G1X237.76Y75.15
G1X237.86Y75.35
G1X237.99Y75.54
G1X238.14Y75.7
G1X238.46Y75.93
G1X238.72Y76.06
G1X238.99Y76.15
G1X239.28Y76.21
G1X239.57Y76.23
G1X239.77
G1X239.97Y76.2
G1X240.16Y76.15
G1X240.34Y76.07
G1X240.51Y75.97
G1X240.66Y75.85
G1X240.81Y75.71
G1X240.93Y75.55
G1X241.06Y75.22
G1X241.13Y74.87
G1X241.16Y74.52
G1X241.17Y74.18
G1Y69.51
G1X242.47
G1Y74.23
G1Y74.86
G1X242.4Y75.49
G1X242.32Y75.81
G1X242.19Y76.11
G1X242.03Y76.39
G1X241.83Y76.64
G1X241.54Y76.88
G1X241.22Y77.06
G1X240.87Y77.2
G1X240.51Y77.29
G1X240.07Y77.35
G1X239.63
G1X239.19Y77.29
G1X238.76Y77.18
G1X238.36Y76.99
G1X237.99Y76.74
G1X237.67Y76.44
G1X237.4Y76.09
G1Y77.18
G1X236.24
M5
G0X248.67Y77.18
; Layer 
M3
G1Y69.51
G1X249.97
G1Y77.18
G1X248.67
M5
G0X248.67Y78.6
; Layer 
M3
G1X249.97
G1Y80.1
G1X248.67
G1Y78.6
M5
G0X252.48Y76.82
; Layer 
M3
G1X252.18Y76.56
G1X251.94Y76.26
G1X251.76Y75.91
G1X251.65Y75.54
G1X251.61Y75.15
G1X251.65Y74.75
G1X251.77Y74.36
G1X251.97Y74.02
G1X252.22Y73.72
G1X252.53Y73.49
G1X252.89Y73.32
G1X253.92Y72.97
G1X254.97Y72.7
G1X255.48Y72.55
G1X255.97Y72.37
G1X256.16Y72.24
G1X256.31Y72.07
G1X256.4Y71.86
G1X256.43Y71.63
G1X256.41Y71.45
G1X256.37Y71.28
G1X256.29Y71.11
G1X256.19Y70.96
G1X255.99Y70.77
G1X255.75Y70.61
G1X255.45Y70.5
G1X255.06Y70.43
G1X254.66Y70.41
G1X254.27Y70.44
G1X253.88Y70.51
G1X253.56Y70.64
G1X253.28Y70.82
G1X253.06Y71.05
G1X252.89Y71.32
G1X252.76Y71.66
G1X252.68Y72
G1X251.4Y71.8
G1X251.5Y71.34
G1X251.67Y70.9
G1X251.91Y70.49
G1X252.21Y70.13
G1X252.52Y69.87
G1X252.88Y69.67
G1X253.25Y69.52
G1X253.65Y69.43
G1X254.01Y69.37
G1X254.38Y69.34
G1X254.75
G1X255.11Y69.36
G1X255.51Y69.41
G1X255.9Y69.51
G1X256.27Y69.65
G1X256.63Y69.83
G1X256.84Y69.97
G1X257.03Y70.13
G1X257.21Y70.31
G1X257.36Y70.51
G1X257.49Y70.73
G1X257.6Y70.95
G1X257.68Y71.19
G1X257.74Y71.44
G1X257.77Y71.75
G1X257.75Y72.05
G1X257.69Y72.35
G1X257.59Y72.64
G1X257.38Y72.97
G1X257.12Y73.24
G1X256.8Y73.46
G1X256.45Y73.62
G1X255.26Y74
G1X254.07Y74.33
G1X253.85Y74.38
G1X253.63Y74.46
G1X253.43Y74.54
G1X253.23Y74.65
G1X253.11Y74.74
G1X253.01Y74.85
G1X252.94Y74.97
G1X252.89Y75.11
G1X252.87Y75.25
G1Y75.39
G1X252.9Y75.53
G1X252.96Y75.67
G1X253.06Y75.81
G1X253.18Y75.93
G1X253.32Y76.04
G1X253.47Y76.12
G1X253.73Y76.2
G1X253.99Y76.25
G1X254.26Y76.28
G1X254.53
G1X254.77
G1X255.01Y76.25
G1X255.25Y76.19
G1X255.48Y76.1
G1X255.7Y75.96
G1X255.89Y75.77
G1X256.04Y75.56
G1X256.14Y75.31
G1X256.2Y75.03
G1X257.48Y75.21
G1X257.42Y75.52
G1X257.32Y75.82
G1X257.19Y76.11
G1X257.03Y76.39
G1X256.88Y76.56
G1X256.72Y76.71
G1X256.53Y76.84
G1X256.34Y76.96
G1X255.99Y77.11
G1X255.63Y77.22
G1X255.25Y77.3
G1X254.88Y77.34
G1X254.36Y77.36
G1X253.84Y77.31
G1X253.33Y77.2
G1X252.84Y77.03
G1X252.48Y76.82
M5
G0X215.77Y45.47
; Layer 
M3
G1X216.04Y45.31
G1X216.28Y45.11
G1X216.49Y44.88
G1X216.66Y44.61
G1X216.78Y44.31
G1X216.89Y43.9
G1X216.95Y43.47
G1X212.66
G1X212.73Y43.94
G1X212.87Y44.37
G1X213.07Y44.75
G1X213.34Y45.07
G1X213.66Y45.34
G1X214.02Y45.52
G1X214.42Y45.63
G1X214.85Y45.67
G1X215.17Y45.65
G1X215.48Y45.58
G1X215.77Y45.47
M5
G0X216.85Y46.13
; Layer 
M3
G1X216.55Y46.32
G1X216.23Y46.48
G1X215.84Y46.61
G1X215.44Y46.69
G1X215.04Y46.74
G1X214.64
G1X214.24Y46.7
G1X213.84Y46.61
G1X213.45Y46.49
G1X213.08Y46.32
G1X212.81Y46.15
G1X212.55Y45.96
G1X212.32Y45.74
G1X212.1Y45.5
G1X211.91Y45.25
G1X211.75Y44.97
G1X211.61Y44.68
G1X211.5Y44.38
G1X211.39Y43.97
G1X211.31Y43.54
G1X211.26Y43.12
G1X211.25Y42.69
G1X211.26Y42.27
G1X211.31Y41.84
G1X211.39Y41.42
G1X211.5Y41
G1X211.67Y40.58
G1X211.89Y40.19
G1X212.17Y39.83
G1X212.49Y39.52
G1X212.85Y39.26
G1X213.24Y39.05
G1X213.66Y38.89
G1X214.11Y38.79
G1X214.67Y38.73
G1X215.23
G1X215.8Y38.8
G1X216.34Y38.96
G1X216.85Y39.21
G1X217.31Y39.54
G1X217.64Y39.9
G1X217.91Y40.3
G1X218.13Y40.74
G1X218.28Y41.2
G1X216.93Y41.37
G1X216.78Y41
G1X216.59Y40.66
G1X216.33Y40.34
G1X216.02Y40.09
G1X215.65Y39.91
G1X215.26Y39.81
G1X215.02Y39.79
G1X214.78
G1X214.54Y39.81
G1X214.31Y39.86
G1X214.09Y39.94
G1X213.87Y40.04
G1X213.67Y40.16
G1X213.47Y40.3
G1X213.18Y40.62
G1X212.94Y40.98
G1X212.77Y41.38
G1X212.66Y41.81
G1X212.62Y42.1
G1X212.6Y42.4
G1X218.31
G1X218.32Y42.91
G1X218.28Y43.43
G1X218.2Y43.93
G1X218.08Y44.43
G1X217.95Y44.77
G1X217.79Y45.09
G1X217.6Y45.38
G1X217.38Y45.66
G1X217.13Y45.91
G1X216.85Y46.13
M5
G0X199.11Y31.15
; Layer 
M3
G1X198.86Y31.26
G1X198.61Y31.34
G1X198.34Y31.41
G1X198.15Y31.43
G1X197.96
G1X197.76Y31.41
G1X197.57Y31.36
G1X197.41Y31.3
G1X197.26Y31.22
G1X197.11Y31.12
G1X196.98Y31.01
G1X196.64Y30.57
G1X196.35Y30.09
G1Y31.26
G1X195.18
G1Y23.59
G1X196.48
G1Y27.6
G1Y28.05
G1X196.54Y28.49
G1X196.64Y28.92
G1X196.78Y29.34
G1X196.89Y29.53
G1X197.02Y29.69
G1X197.18Y29.83
G1X197.36Y29.94
G1X197.55Y30.03
G1X197.75Y30.08
G1X197.96Y30.09
G1X198.18Y30.07
G1X198.55Y29.97
G1X198.9Y29.8
G1X199.35Y31.01
G1X199.11Y31.15
M5
G0X193.1Y31.26
; Layer 
M3
G1X191.8
G1Y27.15
G1X191.77Y26.54
G1X191.68Y25.93
G1X191.57Y25.6
G1X191.39Y25.3
G1X191.15Y25.04
G1X190.86Y24.83
G1X190.47Y24.65
G1X190.06Y24.56
G1X189.64Y24.54
G1X189.22Y24.61
G1X188.88Y24.76
G1X188.6Y24.99
G1X188.39Y25.28
G1X188.26Y25.63
G1X188.19Y26.32
G1X188.18Y27
G1Y31.26
G1X186.88
G1Y26.51
G1X186.89Y25.9
G1X186.96Y25.29
G1X187.04Y24.98
G1X187.16Y24.67
G1X187.32Y24.39
G1X187.52Y24.14
G1X187.96Y23.82
G1X188.44Y23.59
G1X188.96Y23.45
G1X189.5Y23.41
G1X189.88Y23.43
G1X190.14Y23.47
G1X190.4Y23.54
G1X190.65Y23.63
G1X190.89Y23.74
G1X191.11Y23.88
G1X191.33Y24.03
G1X191.52Y24.21
G1X191.7Y24.41
G1X191.93Y24.71
G1Y23.59
G1X193.1
G1Y31.26
M5
G0X183.63Y29.22
; Layer 
M3
G1X183.75Y28.97
G1X183.83Y28.71
G1X183.92Y28.32
G1X183.98Y27.91
G1X184Y27.51
G1X183.98Y27.1
G1X183.96Y26.72
G1X183.89Y26.35
G1X183.78Y25.98
G1X183.63Y25.63
G1X183.46Y25.35
G1X183.25Y25.11
G1X183.01Y24.9
G1X182.74Y24.73
G1X182.45Y24.6
G1X182.15Y24.52
G1X181.83Y24.48
G1X181.5Y24.5
G1X181.2Y24.55
G1X180.92Y24.64
G1X180.66Y24.77
G1X180.42Y24.93
G1X180.2Y25.12
G1X180.01Y25.35
G1X179.85Y25.6
G1X179.73Y25.87
G1X179.61Y26.25
G1X179.53Y26.64
G1X179.49Y27.03
G1X179.48Y27.42
G1Y27.82
G1X179.53Y28.21
G1X179.61Y28.6
G1X179.73Y28.97
G1X179.92Y29.35
G1X180.17Y29.68
G1X180.47Y29.95
G1X180.82Y30.15
G1X181.2Y30.29
G1X181.59Y30.36
G1X182.01Y30.34
G1X182.42Y30.25
G1X182.67Y30.14
G1X182.91Y30.01
G1X183.12Y29.84
G1X183.32Y29.66
G1X183.49Y29.45
G1X183.63Y29.22
M5
G0X184.88Y29.62
; Layer 
M3
G1X184.62Y30.04
G1X184.31Y30.41
G1X183.94Y30.73
G1X183.54Y31
G1X183.09Y31.2
G1X182.62Y31.34
G1X182.12Y31.41
G1X181.61Y31.43
G1X181.11Y31.38
G1X180.61Y31.27
G1X180.13Y31.1
G1X179.8Y30.92
G1X179.49Y30.71
G1X179.21Y30.47
G1X178.96Y30.19
G1X178.74Y29.89
G1X178.56Y29.57
G1X178.42Y29.23
G1X178.31Y28.86
G1X178.23Y28.47
G1X178.17Y28.08
G1X178.14Y27.68
G1Y27.28
G1X178.16Y26.88
G1X178.21Y26.49
G1X178.29Y26.1
G1X178.39Y25.71
G1X178.58Y25.24
G1X178.84Y24.81
G1X179.15Y24.44
G1X179.51Y24.11
G1X179.92Y23.84
G1X180.37Y23.63
G1X180.84Y23.5
G1X181.34Y23.43
G1X181.79Y23.42
G1X182.23Y23.44
G1X182.7Y23.53
G1X183.16Y23.68
G1X183.59Y23.88
G1X183.99Y24.14
G1X184.26Y24.37
G1X184.5Y24.62
G1X184.71Y24.9
G1X184.89Y25.2
G1X185.05Y25.59
G1X185.17Y25.99
G1X185.26Y26.41
G1X185.3Y26.83
G1X185.34Y27.42
G1X185.31Y28.01
G1X185.22Y28.59
G1X185.08Y29.16
G1X184.88Y29.62
M5
G0X241.9Y27.82
; Layer 
M3
G1X241.95Y28.21
G1X242.03Y28.6
G1X242.15Y28.97
G1X242.33Y29.35
G1X242.59Y29.68
G1X242.89Y29.95
G1X243.23Y30.15
G1X243.61Y30.29
G1X244.01Y30.36
G1X244.42Y30.34
G1X244.83Y30.25
G1X245.09Y30.14
G1X245.32Y30.01
G1X245.54Y29.84
G1X245.73Y29.66
G1X245.9Y29.45
G1X246.05Y29.22
G1X246.16Y28.97
G1X246.25Y28.71
G1X246.33Y28.36
G1X246.38Y28.01
G1X246.41Y27.65
G1Y27.29
G1X246.39Y26.93
G1X246.34Y26.58
G1X246.26Y26.23
G1X246.16Y25.88
G1X246.01Y25.55
G1X245.8Y25.26
G1X245.56Y25.01
G1X245.28Y24.8
G1X244.97Y24.64
G1X244.63Y24.53
G1X244.28Y24.48
G1X243.92Y24.5
G1X243.62Y24.55
G1X243.34Y24.64
G1X243.08Y24.77
G1X242.83Y24.93
G1X242.62Y25.12
G1X242.43Y25.35
G1X242.27Y25.6
G1X242.15Y25.87
G1X242.03Y26.25
G1X241.95Y26.64
G1X241.9Y27.03
G1Y27.42
G1Y27.82
M5
G0X240.56Y27.68
; Layer 
M3
G1Y27.28
G1X240.58Y26.88
G1X240.63Y26.49
G1X240.71Y26.1
G1X240.81Y25.71
G1X240.98Y25.29
G1X241.2Y24.89
G1X241.47Y24.54
G1X241.78Y24.23
G1X242.14Y23.96
G1X242.53Y23.75
G1X242.95Y23.58
G1X243.39Y23.48
G1X243.7Y23.44
G1X244.02Y23.42
G1X244.33
G1X244.65Y23.44
G1X245.12Y23.53
G1X245.57Y23.68
G1X246Y23.88
G1X246.41Y24.14
G1X246.76Y24.45
G1X247.06Y24.81
G1X247.3Y25.2
G1X247.47Y25.59
G1X247.59Y25.99
G1X247.67Y26.41
G1X247.72Y26.83
G1X247.75Y27.42
G1X247.73Y28
G1X247.64Y28.59
G1X247.5Y29.16
G1X247.3Y29.62
G1X247.04Y30.04
G1X246.73Y30.41
G1X246.36Y30.73
G1X245.96Y31
G1X245.51Y31.2
G1X245.04Y31.34
G1X244.55Y31.41
G1X244.03Y31.43
G1X243.53Y31.39
G1X243.03Y31.27
G1X242.55Y31.1
G1X242.21Y30.92
G1X241.91Y30.71
G1X241.63Y30.47
G1X241.38Y30.19
G1X241.16Y29.89
G1X240.98Y29.57
G1X240.83Y29.23
G1X240.73Y28.86
G1X240.64Y28.47
G1X240.59Y28.08
G1X240.56Y27.68
M5
G0X250.18Y27.42
; Layer 
M3
G1Y27.82
G1X250.23Y28.21
G1X250.31Y28.6
G1X250.43Y28.97
G1X250.62Y29.35
G1X250.87Y29.68
G1X251.17Y29.95
G1X251.52Y30.15
G1X251.89Y30.29
G1X252.29Y30.36
G1X252.7Y30.34
G1X253.11Y30.25
G1X253.37Y30.14
G1X253.6Y30.01
G1X253.82Y29.84
G1X254.01Y29.66
G1X254.18Y29.45
G1X254.33Y29.22
G1X254.44Y28.97
G1X254.53Y28.71
G1X254.61Y28.36
G1X254.67Y28.01
G1X254.69Y27.65
G1Y27.29
G1X254.67Y26.93
G1X254.62Y26.58
G1X254.55Y26.23
G1X254.44Y25.88
G1X254.29Y25.55
G1X254.09Y25.26
G1X253.84Y25.01
G1X253.56Y24.8
G1X253.25Y24.64
G1X252.92Y24.53
G1X252.56Y24.48
G1X252.2Y24.5
G1X251.91Y24.55
G1X251.62Y24.64
G1X251.36Y24.77
G1X251.12Y24.93
G1X250.9Y25.12
G1X250.71Y25.35
G1X250.56Y25.6
G1X250.43Y25.87
G1X250.31Y26.25
G1X250.23Y26.64
G1X250.19Y27.03
G1X250.18Y27.42
M5
G0X248.84Y27.48
; Layer 
M3
G1X248.87Y26.79
G1X248.98Y26.1
G1X249.08Y25.73
G1X249.22Y25.38
G1X249.39Y25.04
G1X249.6Y24.72
G1X249.84Y24.45
G1X250.1Y24.21
G1X250.38Y23.99
G1X250.68Y23.81
G1X251Y23.66
G1X251.34Y23.55
G1X251.69Y23.47
G1X252.04Y23.43
G1X252.49Y23.42
G1X252.93Y23.44
G1X253.4Y23.53
G1X253.86Y23.68
G1X254.29Y23.88
G1X254.69Y24.14
G1X254.96Y24.37
G1X255.2Y24.62
G1X255.41Y24.9
G1X255.59Y25.2
G1X255.77Y25.67
G1X255.91Y26.16
G1X255.99Y26.66
G1X256.02Y27.17
G1X256.03Y27.67
G1X256Y28.18
G1X255.91Y28.67
G1X255.78Y29.16
G1X255.58Y29.62
G1X255.32Y30.04
G1X255.01Y30.41
G1X254.64Y30.73
G1X254.24Y31
G1X253.79Y31.2
G1X253.32Y31.34
G1X252.82Y31.41
G1X252.31Y31.43
G1X251.81Y31.38
G1X251.31Y31.27
G1X250.83Y31.1
G1X250.5Y30.92
G1X250.19Y30.71
G1X249.91Y30.47
G1X249.66Y30.19
G1X249.44Y29.89
G1X249.26Y29.57
G1X249.12Y29.23
G1X249.01Y28.86
G1X248.89Y28.18
G1X248.84Y27.48
M5
G0X258.48Y27.72
; Layer 
M3
G1X258.55Y28.36
G1X258.7Y29
G1X258.89Y29.41
G1X259.16Y29.76
G1X259.5Y30.05
G1X259.9Y30.26
G1X260.19Y30.33
G1X260.48Y30.36
G1X260.77Y30.34
G1X261.05Y30.27
G1X261.32Y30.17
G1X261.57Y30.03
G1X261.8Y29.84
G1X262Y29.62
G1X262.19Y29.33
G1X262.34Y29.03
G1X262.45Y28.71
G1X262.52Y28.37
G1X262.59Y27.87
G1X262.61Y27.36
G1X262.59Y26.85
G1X262.53Y26.34
G1X262.44Y25.97
G1X262.3Y25.63
G1X262.1Y25.3
G1X261.86Y25.02
G1X261.54Y24.76
G1X261.17Y24.58
G1X260.77Y24.49
G1X260.35
G1X259.99Y24.58
G1X259.66Y24.73
G1X259.36Y24.94
G1X259.1Y25.21
G1X258.91Y25.48
G1X258.75Y25.78
G1X258.64Y26.09
G1X258.56Y26.41
G1X258.48Y27.06
G1Y27.72
M5
G0X257.14Y27.55
; Layer 
M3
G1Y27.14
G1X257.18Y26.72
G1X257.24Y26.3
G1X257.33Y25.94
G1X257.46Y25.58
G1X257.61Y25.24
G1X257.79Y24.91
G1X258.07Y24.53
G1X258.39Y24.19
G1X258.74Y23.92
G1X259.13Y23.7
G1X259.55Y23.54
G1X259.99Y23.44
G1X260.39Y23.42
G1X260.79Y23.43
G1X261.06Y23.47
G1X261.33Y23.55
G1X261.58Y23.65
G1X261.82Y23.78
G1X262.04Y23.94
G1X262.24Y24.12
G1X262.43Y24.32
G1X262.58Y24.55
G1Y23.59
G1X263.79
G1Y34.17
G1X262.5
G1Y30.38
G1X262.3Y30.62
G1X262.08Y30.83
G1X261.83Y31.01
G1X261.57Y31.16
G1X261.29Y31.28
G1X261Y31.37
G1X260.69Y31.42
G1X260.38
G1X259.93Y31.4
G1X259.48Y31.31
G1X259.21Y31.21
G1X258.95Y31.1
G1X258.71Y30.95
G1X258.48Y30.79
G1X258.26Y30.61
G1X258.07Y30.4
G1X257.89Y30.18
G1X257.74Y29.94
G1X257.51Y29.47
G1X257.34Y28.99
G1X257.23Y28.49
G1X257.16Y27.97
G1X257.14Y27.55
M5
G0X266.26Y25.07
; Layer 
M3
G1Y23.59
G1X267.74
G1Y25.07
G1X266.26
M5
G0X190.66Y78.6
; Layer 
M3
G1Y80.1
G1X189.36
G1Y78.6
G1X190.66
M5
M9
G1S0
G90
; return to user-defined finish pos
G0 X0 Y0
M2
